public/build/img/skill-tools.svg

<svg width="31" height="30" viewBox="0 0 31 30" fill="none" xmlns="http://www.w3.org/2000/svg">
<g clip-path="url(#clip0)">
<path d="M30.4033 4.52645C30.3562 4.19686 30.1278 3.92217 29.8131 3.81665C29.5 3.71024 29.1518 3.79344 28.9165 4.02864L27.6778 5.27235C27.0157 5.93669 25.8617 5.93669 25.1995 5.27235C24.5144 4.58493 24.5147 3.47364 25.1995 2.78669L26.4382 1.54385C26.6726 1.30866 26.7548 0.960202 26.6495 0.644323C26.5443 0.328444 26.2706 0.0992841 25.9421 0.0521161C24.3073 -0.179622 22.6529 0.371393 21.4834 1.54298C20.1609 2.87077 19.6391 4.82259 20.1224 6.63788L7.17063 19.6323L7.16975 19.6315C5.36732 19.1517 3.4109 19.6752 2.09265 20.9979C0.93092 22.1635 0.374902 23.8363 0.60587 25.4722C0.65294 25.8018 0.881339 26.0765 1.19611 26.182C1.50837 26.2876 1.85736 26.2052 2.09265 25.97L3.33136 24.7263C3.99348 24.062 5.14751 24.062 5.80964 24.7263C6.49478 25.4136 6.49442 26.5249 5.80964 27.212L4.57093 28.4548C4.33652 28.69 4.25441 29.0384 4.35965 29.3543C4.46488 29.6702 4.7386 29.8994 5.06709 29.9465C6.6976 30.1793 8.33826 29.646 9.52575 28.4557C10.8483 27.1279 11.3701 25.1761 10.8868 23.3608L23.8385 10.3663L23.8394 10.3672C25.6512 10.8487 27.5983 10.3234 28.9165 9.00079C30.0783 7.83518 30.6343 6.16239 30.4033 4.52645Z" fill="#1d4ed8"/>
<path d="M25.1955 19.4532C24.7807 19.4532 24.3538 19.5158 23.8525 19.6489L20.4573 16.2428L16.74 19.9721L20.1347 23.3783C20.002 23.8821 19.9396 24.3104 19.9396 24.7266C19.9396 27.6346 22.2972 30.0001 25.1955 30.0001C28.0938 30.0001 30.4515 27.6346 30.4515 24.7266C30.4515 21.8187 28.0938 19.4532 25.1955 19.4532ZM28.0699 24.5507L27.5489 26.5007C27.4676 26.8037 27.2315 27.0406 26.9296 27.1221L24.986 27.6448C24.7005 27.7238 24.3706 27.6488 24.14 27.4174L22.7174 25.99C22.4958 25.7677 22.4094 25.4442 22.4907 25.1412L23.0116 23.1911C23.0929 22.8881 23.329 22.6513 23.631 22.5697L25.5745 22.047C25.8748 21.9629 26.1982 22.0522 26.4206 22.2745L27.8432 23.7018C28.0647 23.9241 28.1511 24.2477 28.0699 24.5507Z" fill="#1d4ed8"/>
<path d="M10.8878 6.58834C11.3711 4.77305 10.8493 2.82041 9.52678 1.49344C7.54127 -0.497813 4.0775 -0.497813 2.09374 1.49344C0.0449252 3.54996 0.0449252 6.89561 2.09374 8.95125C3.41029 10.2722 5.35988 10.8035 7.17172 10.3168L10.5519 13.7568L14.2685 10.0281L10.8878 6.58834ZM8.59689 4.95844L8.07591 6.9085C7.99462 7.21148 7.75851 7.44838 7.45659 7.52988L5.51301 8.0526C5.22749 8.13158 4.8976 8.05658 4.66698 7.82514L3.24438 6.39779C3.02281 6.17549 2.93644 5.85193 3.01767 5.54895L3.53865 3.59889C3.61994 3.2959 3.85605 3.059 4.15797 2.9775L6.10155 2.45479C6.40353 2.3724 6.72601 2.45994 6.94758 2.68225L8.37018 4.10959C8.59175 4.33189 8.67812 4.65545 8.59689 4.95844Z" fill="#1d4ed8"/>
</g>
<defs>
<clipPath id="clip0">
<rect width="29.9003" height="30" fill="white" transform="translate(0.551514)"/>
</clipPath>
</defs>
</svg>

<svg width="31" height="30" fill="none" xmlns="http://www.w3.org/2000/svg"><g clip-path="url(#clip0)" fill="#1d4ed8"><path d="M30.403 4.526a.88.88 0 00-.59-.71.873.873 0 00-.896.213l-1.24 1.243c-.661.665-1.815.665-2.477 0a1.76 1.76 0 010-2.485l1.238-1.243a.88.88 0 00-.496-1.492 5.26 5.26 0 00-4.459 1.491 5.307 5.307 0 00-1.36 5.095L7.17 19.632a5.287 5.287 0 00-5.077 1.366 5.317 5.317 0 00-1.487 4.474.875.875 0 001.487.498l1.238-1.244c.662-.664 1.817-.664 2.479 0a1.76 1.76 0 010 2.486l-1.24 1.243a.88.88 0 00.497 1.492 5.228 5.228 0 004.459-1.491 5.307 5.307 0 001.36-5.095L23.84 10.366v.001a5.277 5.277 0 005.078-1.366 5.316 5.316 0 001.486-4.475z"/><path d="M25.195 19.453c-.414 0-.841.063-1.343.196l-3.395-3.406-3.717 3.73 3.395 3.405a5.213 5.213 0 00-.195 1.349c0 2.908 2.357 5.273 5.255 5.273 2.899 0 5.256-2.365 5.256-5.273 0-2.908-2.357-5.274-5.256-5.274zm2.875 5.098l-.521 1.95a.88.88 0 01-.62.621l-1.943.523a.873.873 0 01-.846-.228l-1.423-1.427a.88.88 0 01-.226-.849l.52-1.95a.88.88 0 01.62-.621l1.944-.523a.87.87 0 01.846.227l1.422 1.428a.88.88 0 01.227.849zM10.888 6.588a5.306 5.306 0 00-1.361-5.095c-1.986-1.99-5.45-1.99-7.433 0a5.293 5.293 0 000 7.458 5.269 5.269 0 005.078 1.366l3.38 3.44 3.716-3.729-3.38-3.44zm-2.291-1.63l-.521 1.95a.88.88 0 01-.62.622l-1.943.523a.873.873 0 01-.846-.228L3.244 6.398a.88.88 0 01-.226-.85l.52-1.95a.88.88 0 01.62-.62l1.944-.523a.87.87 0 01.846.227L8.37 4.11a.88.88 0 01.227.848z"/></g><defs><clipPath id="clip0"><path fill="#fff" transform="translate(.552)" d="M0 0h29.9v30H0z"/></clipPath></defs></svg>
